usr/share/icons/biglinux-icons-material/symbolic/devices/audio-headphones-symbolic.svg

<svg width="16" height="16" version="1.1" xmlns="http://www.w3.org/2000/svg">
 <g fill="#dedede" stroke-linecap="round" stroke-linejoin="round" stroke-width="2" style="paint-order:stroke fill markers" aria-label="">
  <path d="m8 1q0.82813 0 1.5938 0.21875 0.76563 0.21094 1.4297 0.60156 0.67188 0.39062 1.2188 0.9375t0.9375 1.2188q0.39062 0.66406 0.60156 1.4297 0.21875 0.76562 0.21875 1.5938v5.5q0 0.3125-0.11719 0.58594-0.11719 0.27344-0.32031 0.47656t-0.47656 0.32031q-0.27344 0.11719-0.58594 0.11719h-1.5v-6h1.5q0.25781 0 0.5 0.085937v-1.0859q0-1.0312-0.39844-1.9375-0.39062-0.91406-1.0703-1.5938-0.67969-0.67969-1.5938-1.0703-0.90625-0.39844-1.9375-0.39844-1.0312 0-1.9453 0.39844-0.90625 0.39062-1.5859 1.0703-0.67969 0.67969-1.0781 1.5938-0.39062 0.90625-0.39062 1.9375v1.0859q0.24219-0.085937 0.5-0.085937h1.5v6h-1.5q-0.3125 0-0.58594-0.11719-0.27344-0.11719-0.47656-0.32031t-0.32031-0.47656q-0.11719-0.27344-0.11719-0.58594v-5.5q0-0.82812 0.21094-1.5938 0.21875-0.76562 0.60938-1.4297 0.39062-0.67188 0.9375-1.2188t1.2109-0.9375q0.67188-0.39062 1.4375-0.60156 0.76562-0.21875 1.5938-0.21875zm-4.5 8q-0.20312 0-0.35156 0.14844t-0.14844 0.35156v3q0 0.20312 0.14844 0.35156 0.14844 0.14844 0.35156 0.14844h0.5v-4zm9 4q0.20312 0 0.35156-0.14844 0.14844-0.14844 0.14844-0.35156v-3q0-0.20312-0.14844-0.35156-0.14844-0.14844-0.35156-0.14844h-0.5v4z" stroke-width="2"/>
 </g>
</svg>

<svg xmlns="http://www.w3.org/2000/svg" width="16" height="16"><path fill="#dedede" stroke-linecap="round" stroke-linejoin="round" stroke-width="2" d="M8 1q.828 0 1.594.219.765.21 1.43.601.671.39 1.218.938t.938 1.219q.39.664.601 1.43.22.765.22 1.593v5.5q0 .313-.118.586-.117.273-.32.477t-.477.32Q12.813 14 12.5 14H11V8h1.5q.258 0 .5.086V7q0-1.031-.398-1.937-.391-.914-1.07-1.594-.68-.68-1.594-1.07Q9.03 2 8 2T6.055 2.4q-.906.39-1.586 1.07T3.39 5.063Q3 5.969 3 7v1.086Q3.241 8 3.5 8H5v6H3.5q-.313 0-.587-.117-.273-.117-.476-.32t-.32-.477Q2 12.813 2 12.5V7q0-.828.211-1.594.219-.765.61-1.43.39-.671.937-1.218t1.21-.938q.673-.39 1.438-.601Q7.172 1 8 1zM3.5 9q-.203 0-.352.148T3 9.5v3q0 .203.148.352.149.148.352.148H4V9zm9 4q.203 0 .352-.148.148-.149.148-.352v-3q0-.203-.148-.352Q12.703 9 12.5 9H12v4z" aria-label="" style="paint-order:stroke fill markers"/></svg>
